X:1
T: Top and Bottom
C:
R:Jig
Q:180
K:G
M:6/8
L:1/16
|:g6 d2B2d2|g6 d2B2d2|g2z2e2 d2c2B2|e2d2c2 B2A2G2|
g6 d2B2d2|g6 d2B2d2|b2a2g2 f2e2d2|A2d2^c2 d6
d2c2B2 c2e2a2|c2B2A2 B2d2g2|e2d2c2 B2A2G2|F2G2E2 D6|
g2a2f2 g2a2f2|g2a2f2 g2a2f2|g2d2c2 B2c2A2|G2G2G2 G6:|
